public/images/icons/wiki/straal/centarus.svg

<svg fill="none" height="480" stroke-width="15" width="480" xmlns="http://www.w3.org/2000/svg"><g stroke-linecap="round" stroke-linejoin="round"><path d="m240 0-240 240h480zm-180 180 180 240 180-240z" fill="#eee" stroke="#eee" stroke-width="10"/><path d="m240 45-120 165 120 165 120-165zm0 105v120m-15-75h30m-30 30h30m-150-60-60 60h45zm270 0 15 60h45z" fill="none" stroke="#212121" stroke-width="15"/></g></svg>

<svg xmlns="http://www.w3.org/2000/svg" baseProfile="full" version="1.1" width="480px" height="480px" style="fill: none; width: 480px; height: 480px; stroke-width: 15;"><path d="M240,0 L240,0 L0,240 L480,240 L240,0 Z M60,180 L60,180 L240,420 L420,180 L60,180 " style="stroke-width: 10; stroke-linecap: round; stroke-linejoin: round; stroke: rgb(238, 238, 238); fill: rgb(238, 238, 238);"></path><path d="M240,45 L240,45 L120,210 L240,375 L360,210 L240,45 M240,150 L240,150 L240,270 M225,195 L225,195 L255,195 M225,225 L225,225 L255,225 M105,165 L105,165 L45,225 L90,225 L105,165 M375,165 L375,165 L390,225 L435,225 L375,165 " style="stroke-width: 15; stroke-linecap: round; stroke-linejoin: round; stroke: rgb(33, 33, 33); fill: none;"></path><path d="" style="stroke-width: 10; stroke-linecap: round; stroke-linejoin: round; stroke: rgb(238, 238, 238); fill: rgb(238, 238, 238);"></path></svg>
